X:57
T: Wiedersehen an der Bahre
N: Q0056M
O: Mitteleuropa, Oesterreich, Ostmark, Burgenland
R: Ballade, Abschied, Enttaeuschung, Tod, Selbstmord
M: 2/4
L: 1/16
K: F
c2 | d3cB2A2 | c2c2G2
c2 | d3cB2A2 | c2G2z2
c2 | f2e2g3f | e3df2
ce | e3dc3B | B2A2z2
c2 | f2e2g3f | e3df2
ce | e3dc3B | B2A2z2

@@@ Tune index: 933
